;FLAVOR:Marlin
;TIME:10548
;Filament used: 15.2063m
;Layer height: 0.3
;Generated with Cura_SteamEngine 3.2.1
M190 S60
M104 S200
M109 S200
M82 ;absolute extrusion mode
G21 ;metric values
G90 ;absolute positioning
M82 ;set extruder to absolute mode
M107 ;start with the fan off
G28 X0 Y0 ;move X/Y to min endstops
G28 Z0 ;move Z to min endstops
G1 Z15.0 F100 ;move the platform down 15mm
G92 E0 ;zero the extruded length
G1 F200 E3 ;extrude 3mm of feed stock
G92 E0 ;zero the extruded length again
G1 F100
M117 Printing...
G5
;LAYER_COUNT:77
;LAYER:0
M106 S255
M204 S3500
M205 X13 Y13
G0 F3000 X45.538 Y47.742 Z0.2
M204 S2000
;TYPE:SKIRT
G1 F2400 X46.194 Y47.173 E0.04044
G1 X48.497 Y45.436 E0.17476
G1 X48.906 Y45.152 E0.19794
G1 X50.118 Y44.378 E0.2649
G1 X50.513 Y44.145 E0.28626
G1 X52.976 Y42.81 E0.41671
G1 X53.766 Y42.449 E0.45715
G1 X56.477 Y41.426 E0.59208
G1 X56.95 Y41.269 E0.61528
G1 X58.298 Y40.877 E0.68065
G1 X58.744 Y40.764 E0.70208
G1 X61.512 Y40.171 E0.83389
G1 X62.42 Y40.044 E0.87658
G1 X66.33 Y39.779 E1.05907
G1 X66.764 Y39.764 E1.07929
G1 X166.412 Y39.773 E5.71932
G1 X167.126 Y39.813 E5.75261
G1 X167.831 Y39.933 E5.78591
G1 X168.518 Y40.13 E5.81919
G1 X169.18 Y40.403 E5.85254
G1 X169.806 Y40.748 E5.88582
G1 X170.39 Y41.161 E5.91913
G1 X170.925 Y41.636 E5.95244
G1 X171.403 Y42.168 E5.98574
G1 X171.819 Y42.75 E6.01905
G1 X172.167 Y43.375 E6.05236
G1 X172.443 Y44.034 E6.08563
G1 X172.644 Y44.721 E6.11896
G1 X172.767 Y45.425 E6.15224
G1 X172.811 Y46.173 E6.18713
G1 X172.811 Y96.154 E8.51446
G1 X172.771 Y96.868 E8.54775
G1 X172.652 Y97.573 E8.58105
G1 X172.454 Y98.261 E8.61438
G1 X172.181 Y98.922 E8.64768
G1 X171.837 Y99.549 E8.68098
G1 X171.424 Y100.133 E8.71429
G1 X170.949 Y100.667 E8.74757
G1 X170.417 Y101.146 E8.7809
G1 X169.835 Y101.561 E8.81419
G1 X169.21 Y101.91 E8.84752
G1 X168.55 Y102.186 E8.88083
G1 X167.864 Y102.387 E8.91412
G1 X167.159 Y102.51 E8.94744
G1 X166.41 Y102.554 E8.98238
G1 X66.094 Y102.538 E13.65351
G1 X65.622 Y102.52 E13.67551
G1 X62.398 Y102.281 E13.82604
G1 X61.516 Y102.154 E13.86753
G1 X58.055 Y101.404 E14.03243
G1 X57.2 Y101.155 E14.0739
G1 X54.482 Y100.155 E14.20876
G1 X54.012 Y99.961 E14.23243
G1 X52.672 Y99.343 E14.30114
G1 X52.263 Y99.136 E14.32249
G1 X49.831 Y97.796 E14.45178
G1 X49.088 Y97.317 E14.49295
G1 X46.225 Y95.177 E14.65939
G1 X45.532 Y94.576 E14.7021
G1 X43.02 Y92.064 E14.86752
G1 X42.426 Y91.38 E14.9097
G1 X40.284 Y88.525 E15.0759
G1 X39.785 Y87.75 E15.11882
G1 X38.074 Y84.615 E15.28513
G1 X37.705 Y83.811 E15.32632
G1 X36.704 Y81.161 E15.45822
G1 X36.551 Y80.703 E15.48071
G1 X36.134 Y79.284 E15.54958
G1 X36.015 Y78.817 E15.57202
G1 X35.426 Y76.059 E15.70334
G1 X35.303 Y75.202 E15.74365
G1 X35.089 Y72.358 E15.87645
G1 X35.071 Y71.878 E15.89882
G1 X35.071 Y70.446 E15.9655
G1 X35.089 Y69.968 E15.98777
G1 X35.301 Y67.14 E16.11983
G1 X35.428 Y66.261 E16.16118
G1 X36.184 Y62.776 E16.32723
G1 X36.434 Y61.919 E16.3688
G1 X37.423 Y59.237 E16.50191
G1 X37.604 Y58.797 E16.52406
G1 X38.192 Y57.507 E16.59008
G1 X38.408 Y57.077 E16.61248
G1 X39.785 Y54.573 E16.74555
G1 X40.257 Y53.838 E16.78622
G1 X41.982 Y51.518 E16.92084
G1 X42.284 Y51.143 E16.94326
G1 X43.189 Y50.1 E17.00756
G1 X43.513 Y49.753 E17.02966
G1 X45.538 Y47.742 E17.16255
M204 S3500
G0 F3000 X45.933 Y48.139
M204 S2000
G1 F2400 X46.531 Y47.62 E17.19942
G1 X48.834 Y45.883 E17.33374
G1 X49.208 Y45.624 E17.35493
G1 X50.42 Y44.85 E17.42189
G1 X50.78 Y44.638 E17.44134
G1 X53.243 Y43.303 E17.57179
G1 X53.964 Y42.973 E17.60872
G1 X56.675 Y41.95 E17.74364
G1 X57.106 Y41.806 E17.7648
G1 X58.454 Y41.414 E17.83017
G1 X58.862 Y41.312 E17.84975
G1 X61.63 Y40.719 E17.98157
G1 X62.458 Y40.602 E18.0205
G1 X66.368 Y40.337 E18.20299
G1 X66.764 Y40.324 E18.22144
G1 X166.412 Y40.333 E22.86147
G1 X167.094 Y40.373 E22.89328
G1 X167.766 Y40.492 E22.92506
G1 X168.42 Y40.69 E22.95687
G1 X169.047 Y40.962 E22.9887
G1 X169.638 Y41.305 E23.02052
G1 X170.184 Y41.716 E23.05234
G1 X170.679 Y42.187 E23.08415
G1 X171.115 Y42.712 E23.11593
G1 X171.487 Y43.285 E23.14774
G1 X171.79 Y43.898 E23.17958
G1 X172.019 Y44.542 E23.21141
G1 X172.171 Y45.208 E23.24322
G1 X172.251 Y46.173 E23.28831
G1 X172.251 Y96.154 E25.61563
G1 X172.211 Y96.836 E25.64744
G1 X172.092 Y97.509 E25.67927
G1 X171.895 Y98.163 E25.71107
G1 X171.622 Y98.79 E25.74292
G1 X171.279 Y99.38 E25.77469
G1 X170.869 Y99.927 E25.80652
G1 X170.398 Y100.422 E25.83834
G1 X169.872 Y100.858 E25.87015
G1 X169.299 Y101.23 E25.90196
G1 X168.686 Y101.533 E25.9338
G1 X168.043 Y101.761 E25.96557
G1 X167.377 Y101.914 E25.99739
G1 X166.41 Y101.994 E26.04257
G1 X66.094 Y101.978 E30.71371
G1 X65.663 Y101.962 E30.73379
G1 X62.439 Y101.723 E30.88432
G1 X61.634 Y101.607 E30.9222
G1 X58.173 Y100.857 E31.08709
G1 X57.394 Y100.63 E31.12488
G1 X54.676 Y99.63 E31.25973
G1 X54.246 Y99.452 E31.2814
G1 X52.906 Y98.834 E31.35012
G1 X52.534 Y98.646 E31.36952
G1 X50.102 Y97.306 E31.49882
G1 X49.424 Y96.869 E31.53638
G1 X46.561 Y94.729 E31.70282
G1 X45.927 Y94.181 E31.74184
G1 X43.415 Y91.669 E31.90726
G1 X42.874 Y91.044 E31.94575
G1 X40.732 Y88.189 E32.11195
G1 X40.277 Y87.482 E32.1511
G1 X38.566 Y84.347 E32.3174
G1 X38.229 Y83.613 E32.35501
G1 X37.228 Y80.963 E32.48691
G1 X37.088 Y80.546 E32.5074
G1 X36.671 Y79.127 E32.57627
G1 X36.563 Y78.7 E32.59677
G1 X35.974 Y75.942 E32.72809
G1 X35.861 Y75.16 E32.76489
G1 X35.647 Y72.316 E32.89769
G1 X35.631 Y71.878 E32.9181
G1 X35.631 Y70.446 E32.98478
G1 X35.647 Y70.009 E33.00514
G1 X35.859 Y67.181 E33.13719
G1 X35.976 Y66.38 E33.17489
G1 X36.732 Y62.895 E33.34094
G1 X36.96 Y62.112 E33.37891
G1 X37.949 Y59.43 E33.51202
G1 X38.114 Y59.029 E33.53221
G1 X38.702 Y57.739 E33.59822
G1 X38.899 Y57.347 E33.61865
G1 X40.276 Y54.843 E33.75171
G1 X40.706 Y54.172 E33.78882
G1 X42.431 Y51.852 E33.92344
G1 X42.707 Y51.51 E33.94391
G1 X43.612 Y50.467 E34.00821
G1 X43.908 Y50.15 E34.0284
G1 X45.933 Y48.139 E34.16129
M204 S3500
G0 F3000 X46.327 Y48.537
M204 S2000
G1 F2400 X46.869 Y48.068 E34.19467
G1 X49.172 Y46.331 E34.32899
G1 X49.509 Y46.096 E34.34812
G1 X50.721 Y45.322 E34.41508
G1 X51.047 Y45.13 E34.4327
G1 X53.51 Y43.795 E34.56315
G1 X54.162 Y43.497 E34.59653
G1 X56.873 Y42.474 E34.73145
G1 X57.263 Y42.344 E34.75059
G1 X58.611 Y41.952 E34.81596
G1 X58.979 Y41.859 E34.83364
G1 X61.747 Y41.266 E34.96545
G1 X62.496 Y41.161 E35.00067
G1 X66.406 Y40.896 E35.18315
G1 X66.763 Y40.884 E35.19978
G1 X166.411 Y40.893 E39.83981
G1 X167.06 Y40.933 E39.87009
G1 X167.698 Y41.052 E39.90031
G1 X168.317 Y41.249 E39.93056
G1 X168.908 Y41.521 E39.96085
G1 X169.46 Y41.862 E39.99107
G1 X169.966 Y42.269 E40.0213
G1 X170.419 Y42.736 E40.0516
G1 X170.811 Y43.254 E40.08185
G1 X171.136 Y43.816 E40.11208
G1 X171.389 Y44.414 E40.14231
G1 X171.568 Y45.039 E40.17258
G1 X171.668 Y45.681 E40.20284
G1 X171.691 Y46.173 E40.22577
G1 X171.691 Y96.154 E42.5531
G1 X171.651 Y96.802 E42.58333
G1 X171.532 Y97.441 E42.6136
G1 X171.335 Y98.06 E42.64384
G1 X171.064 Y98.65 E42.67408
G1 X170.722 Y99.203 E42.70435
G1 X170.315 Y99.709 E42.73459
G1 X169.849 Y100.162 E42.76485
G1 X169.331 Y100.553 E42.79507
G1 X168.768 Y100.879 E42.82536
G1 X168.17 Y101.132 E42.8556
G1 X167.546 Y101.311 E42.88583
G1 X166.904 Y101.411 E42.91608
G1 X166.41 Y101.434 E42.93911
G1 X66.094 Y101.418 E47.61024
G1 X65.705 Y101.404 E47.62837
G1 X62.481 Y101.165 E47.7789
G1 X61.753 Y101.059 E47.81316
G1 X58.292 Y100.309 E47.97806
G1 X57.587 Y100.104 E48.01225
G1 X54.869 Y99.104 E48.1471
G1 X54.481 Y98.944 E48.16664
G1 X53.141 Y98.326 E48.23536
G1 X52.804 Y98.155 E48.25295
G1 X50.372 Y96.815 E48.38225
G1 X49.759 Y96.42 E48.41621
G1 X46.896 Y94.28 E48.58265
G1 X46.323 Y93.785 E48.6179
G1 X43.811 Y91.273 E48.78332
G1 X43.322 Y90.708 E48.81812
G1 X41.18 Y87.853 E48.98431
G1 X40.768 Y87.213 E49.01976
G1 X39.057 Y84.078 E49.18606
G1 X38.753 Y83.415 E49.22002
G1 X37.752 Y80.765 E49.35193
G1 X37.625 Y80.388 E49.37045
G1 X37.208 Y78.969 E49.43932
G1 X37.11 Y78.583 E49.45787
G1 X36.521 Y75.825 E49.58919
G1 X36.42 Y75.118 E49.62244
G1 X36.206 Y72.274 E49.75524
G1 X36.191 Y71.878 E49.7737
G1 X36.191 Y70.446 E49.84038
G1 X36.206 Y70.051 E49.85878
G1 X36.418 Y67.223 E49.99083
G1 X36.523 Y66.499 E50.0249
G1 X37.279 Y63.014 E50.19095
G1 X37.485 Y62.306 E50.22529
G1 X38.474 Y59.624 E50.35839
G1 X38.624 Y59.261 E50.37668
G1 X39.212 Y57.971 E50.44269
G1 X39.389 Y57.617 E50.46112
G1 X40.766 Y55.113 E50.59419
G1 X41.156 Y54.507 E50.62774
G1 X42.881 Y52.187 E50.76236
G1 X43.13 Y51.877 E50.78088
G1 X44.035 Y50.834 E50.84518
G1 X44.302 Y50.548 E50.8634
G1 X46.327 Y48.537 E50.99628
M204 S3500
G1 F2400 E43.99628
G1 F300 Z0.275
G0 F3000 X61.269 Y65.143 Z0.275
M204 S2000
;TYPE:SUPPORT
G1 F300 Z0.2
G1 F2400 E50.99628
G1 F1500 X85.315 Y65.143 E52.11597
G1 X85.33 Y65.25 E52.121
G1 X85.579 Y66.067 E52.16077
G1 X85.957 Y66.81 E52.19959
G1 X86.487 Y67.531 E52.24125
G1 X87.086 Y68.107 E52.27995
G1 X87.821 Y68.602 E52.32121
G1 X88.6 Y68.955 E52.36104
G1 X89.443 Y69.169 E52.40153
G1 X90.271 Y69.242 E52.44024
G1 X91.122 Y69.176 E52.47998
G1 X92.014 Y68.942 E52.52292
G1 X92.762 Y68.602 E52.56118
G1 X93.481 Y68.119 E52.60152
G1 X94.105 Y67.517 E52.64189
G1 X94.63 Y66.8 E52.68327
G1 X95.008 Y66.047 E52.7225
G1 X95.251 Y65.257 E52.76099
G1 X95.361 Y64.417 E52.80044
G1 X95.327 Y63.532 E52.84168
G1 X95.143 Y62.672 E52.88263
G1 X94.831 Y61.883 E52.92214
G1 X94.399 Y61.183 E52.96044
G1 X93.796 Y60.493 E53.00311
G1 X93.37 Y60.143 E53.02878
G1 X151.568 Y60.143 E55.73872
G1 X151.568 Y82.183 E56.765
G1 X93.383 Y82.182 E59.47433
G1 X93.486 Y82.112 E59.48013
G1 X94.096 Y81.527 E59.51949
G1 X94.617 Y80.824 E59.56023
G1 X95.008 Y80.03 E59.60144
G1 X95.255 Y79.23 E59.64043
G1 X95.367 Y78.359 E59.68132
G1 X95.331 Y77.54 E59.7195
G1 X95.144 Y76.662 E59.7613
G1 X94.823 Y75.87 E59.80109
G1 X94.366 Y75.132 E59.84151
G1 X93.813 Y74.509 E59.8803
G1 X93.133 Y73.957 E59.92108
G1 X92.383 Y73.535 E59.96115
G1 X91.563 Y73.246 E60.00164
G1 X90.711 Y73.101 E60.04188
G1 X89.861 Y73.101 E60.08146
G1 X89.023 Y73.248 E60.12108
G1 X88.188 Y73.538 E60.16224
G1 X87.442 Y73.956 E60.20205
G1 X86.773 Y74.5 E60.2422
G1 X86.202 Y75.142 E60.28221
G1 X85.762 Y75.857 E60.3213
G1 X85.438 Y76.668 E60.36197
G1 X85.329 Y77.183 E60.38648
G1 X61.269 Y77.183 E61.50682
G1 X61.269 Y72.581 E61.7211
G1 X61.316 Y72.664 E61.72555
G1 X61.626 Y73.018 E61.74746
G1 X62.013 Y73.339 E61.77087
G1 X62.361 Y73.508 E61.78888
G1 X62.722 Y73.653 E61.807
G1 X63.208 Y73.734 E61.82994
G1 X63.64 Y73.734 E61.85006
G1 X64.071 Y73.661 E61.87041
G1 X64.486 Y73.51 E61.89097
G1 X64.871 Y73.301 E61.91137
G1 X65.245 Y72.987 E61.93411
G1 X65.486 Y72.697 E61.95167
G1 X65.859 Y72.117 E61.98378
G1 X65.969 Y71.503 E62.01283
G1 X66.004 Y71.097 E62.0318
G1 X65.932 Y70.537 E62.05809
G1 X65.777 Y70.124 E62.07863
G1 X65.61 Y69.812 E62.09511
G1 X65.328 Y69.411 E62.11794
G1 X65.024 Y69.152 E62.13653
G1 X64.679 Y68.902 E62.15637
G1 X64.24 Y68.72 E62.1785
G1 X63.834 Y68.617 E62.19801
G1 X63.489 Y68.589 E62.21412
G1 X63.04 Y68.589 E62.23503
G1 X62.515 Y68.75 E62.2606
G1 X61.355 Y69.288 E62.32014
G1 X61.269 Y69.403 E62.32683
G1 X61.269 Y65.143 E62.52519
M204 S3500
G0 F3000 X61.488 Y66.113
M204 S2000
G1 F1500 X62.788 Y65.362 E62.5951
M204 S3500
G0 F3000 X64 Y65.363
M204 S2000
G1 F1500 X64 Y68.432 E62.73801
M204 S3500
G0 F3000 X65.211 Y65.362
M204 S2000
G1 F1500 X85.168 Y76.884 E63.81104
M204 S3500
G0 F3000 X88 Y73.392
M204 S2000
G1 F1500 X88 Y68.924 E64.01909
M204 S3500
G0 F3000 X88.347 Y69.081
M204 S2000
G1 F1500 X74.695 Y76.963 E64.75313
M204 S3500
G0 F3000 X72 Y76.963
M204 S2000
G1 F1500 X72 Y65.363 E65.29327
M204 S3500
G0 F3000 X78.788 Y65.362
M204 S2000
G1 F1500 X65.482 Y73.044 E66.0087
M204 S3500
G0 F3000 X64.011 Y73.894
M204 S2000
G1 F1500 X61.489 Y75.35 E66.1443
M204 S3500
G0 F3000 X63.993 Y73.897
M204 S2000
G1 F1500 X69.302 Y76.962 E66.42975
M204 S3500
G0 F3000 X64 Y76.963
M204 S2000
G1 F1500 X64 Y73.896 E66.57256
M204 S3500
G0 F3000 X80 Y76.963
M204 S2000
G1 F1500 X80 Y65.363 E67.11271
M204 S3500
G0 F3000 X81.211 Y65.362
M204 S2000
G1 F1500 X109.962 Y81.961 E68.65857
M204 S3500
G0 F3000 X112 Y81.962
M204 S2000
G1 F1500 X112 Y60.363 E69.66431
M204 S3500
G0 F3000 X119.449 Y60.362
M204 S2000
G1 F1500 X94.39 Y74.829 E71.01166
M204 S3500
G0 F3000 X96 Y81.962
M204 S2000
G1 F1500 X96 Y60.363 E72.0174
M204 S3500
G0 F3000 X95.58 Y64.421
M204 S2000
G1 F1500 X125.962 Y81.962 E73.65097
M204 S3500
G0 F3000 X128 Y81.962
M204 S2000
G1 F1500 X128 Y60.363 E74.65671
M204 S3500
G0 F3000 X135.448 Y60.362
M204 S2000
G1 F1500 X98.037 Y81.962 E76.66823
M204 S3500
G0 F3000 X104 Y81.962
M204 S2000
G1 F1500 X104 Y60.363 E77.67397
M204 S3500
G0 F3000 X104.55 Y60.362
M204 S2000
G1 F1500 X141.964 Y81.963 E79.68563
M204 S3500
G0 F3000 X144 Y81.962
M204 S2000
G1 F1500 X144 Y60.363 E80.69137
M204 S3500
G0 F3000 X151.346 Y60.421
M204 S2000
G1 F1500 X114.037 Y81.962 E82.69741
M204 S3500
G0 F3000 X120 Y81.962
M204 S2000
G1 F1500 X120 Y60.363 E83.70315
M204 S3500
G0 F3000 X120.55 Y60.362
M204 S2000
G1 F1500 X151.347 Y78.142 E85.35901
M204 S3500
G0 F3000 X151.346 Y78.896
M204 S2000
G1 F1500 X146.035 Y81.963 E85.64459
M204 S3500
G0 F3000 X136 Y81.962
M204 S2000
G1 F1500 X136 Y60.363 E86.65033
M204 S3500
G0 F3000 X136.551 Y60.362
M204 S2000
G1 F1500 X151.347 Y68.905 E87.44589
M204 S3500
G0 F3000 X151.346 Y69.659
M204 S2000
G1 F1500 X130.035 Y81.962 E88.59171
M204 S3500
G0 F3000 X103.449 Y60.362
M204 S2000
G1 F1500 X95.515 Y64.943 E89.01831
M204 S3500
G1 F2400 E82.01831
G0 F3000 X85.989 Y63.622
G0 X84.515 Y63.323
G0 X58.889 Y62.763
M204 S2000
;TYPE:WALL-INNER
G1 F2400 E89.01831
G1 F1500 X58.889 Y79.563 E89.80059
G1 X84.045 Y79.563 E90.97196
G1 X84.344 Y80.548 E91.01989
G1 X84.832 Y81.517 E91.07041
G1 X85.478 Y82.389 E91.12094
G1 X86.259 Y83.142 E91.17146
G1 X87.167 Y83.756 E91.2225
G1 X88.157 Y84.202 E91.27306
G1 X89.215 Y84.477 E91.32396
G1 X90.229 Y84.563 E91.37135
G1 X153.948 Y84.563 E94.33837
G1 X153.948 Y57.763 E95.58629
G1 X90.259 Y57.763 E98.55192
G1 X89.717 Y57.786 E98.57718
G1 X88.673 Y57.964 E98.62649
G1 X87.652 Y58.327 E98.67695
G1 X86.705 Y58.853 E98.72739
G1 X85.862 Y59.535 E98.77788
G1 X85.142 Y60.349 E98.82849
G1 X84.569 Y61.282 E98.87947
G1 X84.166 Y62.287 E98.92989
G1 X84.063 Y62.763 E98.95257
G1 X58.889 Y62.763 E100.12477
M204 S3500
G0 F3000 X89.772 Y58.305
G0 X153.416 Y58.295
G0 X165.02 Y94.763
M204 S2000
G1 F1500 X66.497 Y94.763 E104.71242
G1 X63.056 Y94.519 E104.87305
G1 X59.775 Y93.804 E105.02941
G1 X56.613 Y92.626 E105.18653
G1 X53.657 Y91.009 E105.34342
G1 X50.974 Y89.003 E105.49941
G1 X48.586 Y86.614 E105.6567
G1 X46.568 Y83.919 E105.81347
G1 X44.958 Y80.97 E105.96992
G1 X43.779 Y77.808 E106.12706
G1 X43.063 Y74.524 E106.28357
G1 X42.824 Y71.163 E106.44047
G1 X43.063 Y67.802 E106.59736
G1 X43.779 Y64.518 E106.75387
G1 X44.958 Y61.356 E106.91101
G1 X46.568 Y58.407 E107.06746
G1 X48.586 Y55.711 E107.22427
G1 X50.974 Y53.323 E107.38152
G1 X53.657 Y51.317 E107.53751
G1 X56.613 Y49.7 E107.69441
G1 X59.774 Y48.523 E107.85147
G1 X63.058 Y47.806 E108.00799
G1 X66.495 Y47.563 E108.16843
G1 X165.02 Y47.563 E112.75616
G1 X165.02 Y94.763 E114.95399
M204 S3500
G0 F3000 X165.58 Y95.323
M204 S2000
G1 F1500 X66.471 Y95.323 E119.56892
G1 X62.981 Y95.075 E119.73184
G1 X59.613 Y94.342 E119.89234
G1 X56.383 Y93.138 E120.05285
G1 X53.356 Y91.483 E120.2135
G1 X50.603 Y89.424 E120.37357
G1 X48.162 Y86.982 E120.53435
G1 X46.098 Y84.226 E120.69468
G1 X44.444 Y81.197 E120.85538
G1 X43.241 Y77.97 E121.01575
G1 X42.507 Y74.6 E121.17635
G1 X42.262 Y71.163 E121.33679
G1 X42.507 Y67.726 E121.49724
G1 X43.241 Y64.356 E121.65784
